X:1
T:Ja, lat oss strida og lat oss tru
T:Ja, lat oss strida og lat oss tru
T:Arne Garborg
T:Christian Sinding
C:Christian Sinding
Z:Arne Garborg
%%score [ 1 2 3 4 ]
L:1/8
Q:1/4=44
M:3/4
K:A
V:1 treble nm="Soprano"
V:2 treble nm="Alto"
V:3 treble-8 nm="Tenor"
V:4 bass nm="Bass"
V:1
 E | A B c2 B A | B A G2 z E |[M:2/4] F G/ A/ B A/ G/ | A B/ c/ d c/ B/ | e2 c A | B3 A | %7
w: Ja,|lat oss stri- da og|lat oss tru og|byg- gja med tan- kar ei|biv- ran- de bru til den|hei- la- ge|hø- ge|
[M:3/4] A2 A,4 | z =G, A, _B, A =G/ A/ | =F3/2 E/ E4 | z A, =B, =C/ E/ B A/ B/ | %11
w: fram- tid.|Me le- ver midt i ei|vill- manns- tid|med blin- kan- de kni- var og|
 =G3/2 ^F/ F2 z =C | A3/2 =G/ =F2 E ^D | =G2 ^F2 z B, | ^C3/2 ^D/ E D/ C/ F3/2 B,/ | G4 z E | %16
w: ne- ve- strid, og|li- vet er som ein|blod- draum. Men|vi- ta skal me og vo- na|visst at|
 B3/2 B/ A G/ A/ G3/2 E/ | E4 z E | (B3 d) c B | e3/2 E/ E E z2 | z6 | z2 z2 z E | A B (c2 B) A | %23
w: ånd må vin- na på troll til|sist og|vit _ på den|var- ge- vill- skap.||So|lat oss tru _ og|
 B A/ B/ G2 z E |[M:2/4] F (G/A/) B (A/G/) | A (B/c/) d (c/B/) | e2 z E | (FG) A B | c2 A2- | %29
w: stri- da som menn! For|tru- i _ er, som _|skri- ve _ stend, den _|makt som|vinn _ y- ver|ver- di.|
 A2 z2 |] %30
w: _|
V:2
 E | C C D2 F F | E E D2 z D |[M:2/4] C B,/ A,/ F E/ D/ | E D/ C/ (A,/D/) E/ F/ | E2 E E | D3 C | %7
w: Ja,|lat oss stri- da og|lat oss tru og|byg- gja med tan- kar ei|biv- ran- de bru _ til den|hei- la- ge|hø- ge|
[M:3/4] C2 A,4 | z =G, A, _B, E E/ E/ | D3/2 D/ D4 | z A, =B, =C/ E/ F F/ ^D/ | E3/2 E/ E2 z =C | %12
w: fram- tid.|Me le- ver midt i ei|vill- manns- tid|med blin- kan- de kni- var og|ne- ve- strid, og|
 =F3/2 E/ =C2 C C | ^C2 ^D2 z B, | ^C3/2 B,/ A, B,/ C/ C3/2 B,/ | (G, B, E2) z E | %16
w: li- vet er som ein|blod- draum. Men|vi- ta skal me og vo- na|visst * * at|
 G3/2 G/ E E/ E/ D3/2 D/ | D4 z E | G4 G G | B (A/F/) A (G/E/) F (E/C/) | (B,C) D ^D E [DF] | %21
w: ånd må vin- na på troll til|sist og|vit på den|var- ge- * vill- skap. _ Ånd må _|vin- * na på troll og|
 [EG] [EG] [EG] [EG] [^DG] [=DG] | C C (D2 F) F | E E/ E/ D2 z D |[M:2/4] C (B,/A,/) F (E/D/) | %25
w: vit på var- ge- vill- skap.|Lat oss tru _ og|stri- da som menn! For|tru- i _ er, som _|
 E (D/C/) (A,/D/) (E/F/) | E2 z E | E2 E [DE] | [CE]2 C2- | C2 z2 |] %30
w: skri- ve _ stend, _ den _|makt som|vinn y- ver|ver- di.|_|
V:3
 E | E E F2 G A | c E E2 z B |[M:2/4] A D/ E/ D E/ F/ | E F/ G/ A G/ F/ | A2 A A | G3 A | %7
w: Ja,|lat oss stri- da og|lat oss tru og|byg- gja med tan- kar ei|biv- ran- de bru til den|hei- la- ge|hø- ge|
[M:3/4] E2 A4 | z =G A _B d d/ c/ | =B3/2 B/ B4 | z A =B =c/ c/ e e/ f/ | =c3/2 c/ c2 z c | %12
w: fram- tid.|Me le- ver midt i ei|vill- manns- tid|med blin- kan- de kni- var og|ne- ve- strid, og|
 =c3/2 _B/ A2 A A | ^A2 B2 z B | =A3/2 B/ c B/ A/ A3/2 F/ | B4 (GB) | e3/2 e/ B B/ B/ B3/2 G/ | %17
w: li- vet er som ein|blod- draum. Men|vi- ta skal me og vo- na|visst at _|ånd må vin- na på troll til|
 (E2 B2) z G | (d3 f) e d | c3/2 c/ B B c A | (F^A) B B B =A | B B B c E E | E E (F2 G) A | %23
w: sist _ og|vit _ på den|var- ge- vill- skap. Ånd må|vin- * na på troll og|vit på var- ge- vill- skap.|Lat oss tru _ og|
 c E/ E/ E2 z B |[M:2/4] A (D/E/) D (E/F/) | E (F/G/) A (G/F/) | A2 z E | (cB) A G | A2 E2- | %29
w: stri- da som menn! For|tru- i _ er, som _|skri- ve _ stend, den _|makt som|vinn _ y- ver|ver- di.|
 E2 z2 |] %30
w: _|
V:4
 E, | A,, A,, D,2 D, D, | C, C, B,,2 z G,, |[M:2/4] A,, B,,/ C,/ D, C,/ B,,/ | %4
w: Ja,|lat oss stri- da og|lat oss tru og|byg- gja med tan- kar ei|
 C, D,/ E,/ F, E,/ D,/ | C,2 A,, C, | E,3 E, |[M:3/4] A,,2 A,,4 | z =G,, A,, _B,, _B, B,/ A,/ | %9
w: biv- ran- de bru til den|hei- la- ge|hø- ge|fram- tid.|Me le- ver midt i ei|
 A,3/2 ^G,/ G,4 | z A,, =B,, =C,/ C,/ =C C/ B,/ | B,3/2 A,/ A,2 z =C | =F,3/2 =G,/ A,2 G, ^F, | %13
w: vill- manns- tid|med blin- kan- de kni- var og|ne- ve- strid, og|li- vet er som ein|
 E,2 B,,2 z B, | F,4 ^D,2 | E,3/2 F,/ =G, F,/ E,/ B,3/2 ^G,/ | D4 E,2 | %17
w: blod- draum. Men|vi- ta,|vi- ta skal me og vo- na|visst at|
 B,3/2 B,/ A, G,/ A,/ G,3/2 E,/ | E, E, E,2 E, E, | E,3/2 E,/ E, E, z2 | D, F, (B,=A,) G,F, | %21
w: ånd må vin- na på troll til|sist og vit på den|var- ge- vill- skap.|Ånd må vin- * na på|
 E, ^D, =D, C, ^B,, =B,, | A,, A,, D,3 D, | C, C,/ C,/ B,,2 z G,, | %24
w: troll og vit på vill- skap.|Lat oss tru og|stri- da som menn! For|
[M:2/4] A,, (B,,/C,/) D, (C,/B,,/) | C, (D,/E,/) F, (E,/D,/) | C,2 z E, | (E,D,) C, B,, | %28
w: tru- i _ er, som _|skri- ve _ stend, den _|makt som|vinn _ y- ver|
 A,,2 [A,,A,]2- | [A,,A,]2 z2 |] %30
w: ver- di.|_|

